public/assets/icons/icon_uvery.svg

<svg xmlns="http://www.w3.org/2000/svg" xml:space="preserve" style="fill-rule:evenodd;clip-rule:evenodd;stroke-linejoin:round;stroke-miterlimit:2" viewBox="0 0 60 60">
  <path d="M4504.39 1171.25v41.13h-6.54a2.8 2.8 0 0 0-2.81 2.81v11.22h-6.55a2.8 2.8 0 0 0-2.8 2.81v14.03a2.8 2.8 0 0 0 2.8 2.81h140.27a2.81 2.81 0 0 0 2.81-2.81v-14.03a2.81 2.81 0 0 0-2.81-2.81h-6.54v-11.22a2.81 2.81 0 0 0-2.81-2.81h-6.54v-41.13h6.54a2.81 2.81 0 0 0 2.81-2.81v-14.03c0-1.03-.57-1.98-1.48-2.47l-60.78-32.73a2.79 2.79 0 0 0-2.66 0l-60.79 32.73a2.8 2.8 0 0 0-1.47 2.47v14.03a2.8 2.8 0 0 0 2.81 2.81h6.54Zm121.56 60.78h-134.64v8.41h134.64v-8.41Zm-9.35-14.02h-115.94v8.4h115.94v-8.4Zm-87.89-46.76v41.13h17.76v-41.13h-17.76Zm42.08 0v41.13h17.76v-41.13h-17.76Zm-5.62 0v41.13h-13.08v-41.13h13.08Zm42.08 0v41.13h-13.08l-.01-41.13h13.09Zm-84.16 0v41.13h-13.08v-41.13h13.08Zm-22.43-5.62h115.94v-9.54l-57.97-31.21-57.97 31.21v9.54Z" style="fill:#5b329b" transform="matrix(.4113 0 0 .4113 -1844.89 -456.33)"/>
</svg>

<?xml version="1.0" encoding="UTF-8" standalone="no"?>
<!DOCTYPE svg PUBLIC "-//W3C//DTD SVG 1.1//EN" "http://www.w3.org/Graphics/SVG/1.1/DTD/svg11.dtd">
<svg width="100%" height="100%" viewBox="0 0 60 60" version="1.1" xmlns="http://www.w3.org/2000/svg" xmlns:xlink="http://www.w3.org/1999/xlink" xml:space="preserve" xmlns:serif="http://www.serif.com/" style="fill-rule:evenodd;clip-rule:evenodd;stroke-linejoin:round;stroke-miterlimit:2;">
    <g transform="matrix(0.411283,0,0,0.411283,-1844.89,-456.329)">
        <path d="M4504.39,1171.25L4504.39,1212.38L4497.85,1212.38C4496.29,1212.38 4495.04,1213.64 4495.04,1215.19L4495.04,1226.41L4488.49,1226.41C4486.94,1226.41 4485.69,1227.67 4485.69,1229.22L4485.69,1243.25C4485.69,1244.8 4486.94,1246.06 4488.49,1246.06L4628.76,1246.06C4630.31,1246.06 4631.57,1244.8 4631.57,1243.25L4631.57,1229.22C4631.57,1227.67 4630.31,1226.41 4628.76,1226.41L4622.22,1226.41L4622.22,1215.19C4622.22,1213.64 4620.96,1212.38 4619.41,1212.38L4612.87,1212.38L4612.87,1171.25L4619.41,1171.25C4620.96,1171.25 4622.22,1169.99 4622.22,1168.44L4622.22,1154.41C4622.22,1153.38 4621.65,1152.43 4620.74,1151.94L4559.96,1119.21C4559.13,1118.76 4558.13,1118.76 4557.3,1119.21L4496.51,1151.94C4495.6,1152.43 4495.04,1153.38 4495.04,1154.41L4495.04,1168.44C4495.04,1169.99 4496.29,1171.25 4497.85,1171.25L4504.39,1171.25ZM4625.95,1232.03L4491.31,1232.03L4491.31,1240.44L4625.95,1240.44L4625.95,1232.03ZM4616.6,1218.01L4500.66,1218.01L4500.66,1226.41L4616.6,1226.41L4616.6,1218.01ZM4528.71,1171.25L4528.71,1212.38L4546.47,1212.38L4546.47,1171.25L4528.71,1171.25ZM4570.79,1171.25L4570.79,1212.38L4588.55,1212.38L4588.55,1171.25L4570.79,1171.25ZM4565.17,1171.25L4565.17,1212.38L4552.09,1212.38L4552.09,1171.25L4565.17,1171.25ZM4607.25,1171.25L4607.25,1212.38L4594.17,1212.38C4594.16,1212.38 4594.16,1171.25 4594.16,1171.25L4607.25,1171.25ZM4523.09,1171.25L4523.09,1212.38L4510.01,1212.38L4510.01,1171.25L4523.09,1171.25ZM4500.66,1165.63L4616.6,1165.63L4616.6,1156.09L4558.63,1124.88L4500.66,1156.09L4500.66,1165.63Z" style="fill:rgb(91,50,155);"/>
    </g>
</svg>
